Vector/symbolic/apps/office-calendar-symbolic.svg

<svg xmlns="http://www.w3.org/2000/svg" width="16" height="16"><path d="M12 0v11l-5 5h7c1.11 0 2-.892 2-2V2c0-1.108-.89-2-2-2z" opacity=".3" fill="#555555"/><path d="M2 0C.89 0 0 .892 0 2v12c0 1.108.89 2 2 2h4v-3s0-2 2-2h3V0zm0 2h1.5C4.33 2 5 2.669 5 3.5c0 .387-.15.735-.39 1 .24.265.39.613.39 1C5 6.331 4.33 7 3.5 7H2V6h1.5c.28 0 .5-.223.5-.5S3.78 5 3.5 5H2V4h1.5c.28 0 .5-.223.5-.5S3.78 3 3.5 3H2zm4.5 0H8v5H7V3H6z" fill="#555555"/></svg>

<svg xmlns="http://www.w3.org/2000/svg" width="16" height="16" version="1.1">
 <path style="opacity:.35;fill:#444444" d="M 12,0 V 11 L 7,16 H 14 C 15.11,16 16,15.108 16,14 V 2 C 16,0.892 15.11,0 14,0 Z"/>
 <path style="fill:#444444" d="M 2,0 C 0.89,0 0,0.892 0,2 V 14 C 0,15.108 0.89,16 2,16 H 6 V 13 C 6,13 6,11 8,11 H 11 V 0 Z M 2,2 H 3.5 C 4.33,2 5,2.669 5,3.5 5,3.887 4.85,4.235 4.61,4.5 4.85,4.765 5,5.113 5,5.5 5,6.331 4.33,7 3.5,7 H 2 V 6 H 3.5 C 3.78,6 4,5.777 4,5.5 4,5.223 3.78,5 3.5,5 H 2 V 4 H 3.5 C 3.78,4 4,3.777 4,3.5 4,3.223 3.78,3 3.5,3 H 2 Z M 6.5,2 H 8 V 7 H 7 V 3 H 6 Z"/>
</svg>
